img/open-design.svg

<svg width="70" height="72" viewBox="0 0 70 72" fill="none" xmlns="http://www.w3.org/2000/svg">
<path fill-rule="evenodd" clip-rule="evenodd" d="M36.6436 1.95703L22.1436 11.457L22.856 12.5444L37.356 3.04443L36.6436 1.95703ZM40.1572 3.94727L25.6572 12.9473L26.3428 14.0518L40.8428 5.0518L40.1572 3.94727ZM28.6572 14.9473L43.1572 5.94727L43.8428 7.0518L29.3428 16.0518L28.6572 14.9473ZM46.1572 7.94727L31.6572 16.9473L32.3428 18.0518L46.8428 9.0518L46.1572 7.94727Z" fill="#DD3333"/>
<path fill-rule="evenodd" clip-rule="evenodd" d="M50.5253 10.003L33.8684 0L18 9.20292V28.8444L34.8641 38.5704L50.5253 29.5045V10.003ZM19.4141 28.0358V10.8314L34.1564 19.409V36.5381L19.4141 28.0358ZM35.5706 36.5358V19.4112L49.1111 11.6178V28.6974L35.5706 36.5358ZM34.8654 18.1937L48.4302 10.3863L33.8558 1.63381L20.1077 9.60708L34.8654 18.1937ZM35.1193 40.1303L49.9965 31.8091L50.6904 33.033L35.8239 41.3482V60.4043H34.4098V41.3454L18.3162 32.2198L19.0173 31L35.1193 40.1303ZM32.5253 42.8708L15.8684 32.8677L0 42.0706V61.7121L16.8641 71.4382L32.5253 62.3722V42.8708ZM1.41414 60.9035V43.6991L16.1564 52.2767V69.4058L1.41414 60.9035ZM17.5706 69.4035V52.2789L31.1111 44.4855V61.5651L17.5706 69.4035ZM16.8654 51.0614L30.4302 43.254L15.8558 34.5015L2.10765 42.4748L16.8654 51.0614ZM70 43.4326L53.343 33.4296L37.4747 42.6325V62.274L54.3388 72L70 62.9341V43.4326ZM38.8888 61.4653V44.261L53.6311 52.8386V69.9676L38.8888 61.4653ZM55.0453 69.9653V52.8408L68.5858 45.0473V62.1269L55.0453 69.9653ZM54.3401 51.6233L67.9049 43.8158L53.3305 35.0634L39.5823 43.0367L54.3401 51.6233Z" fill="#3C3E4C"/>
</svg>

<svg width="70" height="72" viewBox="0 0 70 72" fill="none" xmlns="http://www.w3.org/2000/svg"><path fill-rule="evenodd" clip-rule="evenodd" d="M36.644 1.957l-14.5 9.5.712 1.087 14.5-9.5-.712-1.087zm3.513 1.99l-14.5 9 .686 1.105 14.5-9-.686-1.105zm-11.5 11l14.5-9 .686 1.105-14.5 9-.686-1.105zm17.5-7l-14.5 9 .686 1.105 14.5-9-.686-1.105z" fill="#D33"/><path fill-rule="evenodd" clip-rule="evenodd" d="M50.525 10.003L33.868 0 18 9.203v19.641l16.864 9.726 15.661-9.066V10.003zm-31.11 18.033V10.83l14.741 8.578v17.13l-14.742-8.503zm16.156 8.5V19.41l13.54-7.793v17.08l-13.54 7.838zm-.706-18.342l13.565-7.808-14.574-8.752-13.748 7.973 14.757 8.587zm.254 21.936l14.877-8.32.694 1.223-14.866 8.315v19.056H34.41V41.345L18.316 32.22l.701-1.22 16.102 9.13zm-2.594 2.74L15.868 32.869 0 42.07v19.641l16.864 9.726 15.661-9.066v-19.5zM1.415 60.905V43.699l14.741 8.578v17.129L1.414 60.903zm16.156 8.5V52.278l13.54-7.794v17.08l-13.54 7.838zm-.706-18.343l13.565-7.807-14.574-8.752-13.748 7.973 14.757 8.586zM70 43.433L53.343 33.43l-15.868 9.203v19.641L54.339 72 70 62.934V43.433zM38.889 61.465V44.261l14.742 8.578v17.129L38.89 61.465zm16.156 8.5V52.841l13.54-7.794v17.08l-13.54 7.838zm-.705-18.342l13.565-7.807-14.575-8.753-13.748 7.974 14.758 8.586z" fill="#3C3E4C"/></svg>
